X:30
T: Kikötöm a lovamat
O: Oroszlány (Komárom), Jankó Miklós (44), 1952.10
Q: "Tempo guisto" 1/4=110
M:4/4
L:1/4
K:Eb
c/c/G/G/ F/G/C/D/ | F>E F<D | C2 C z | 
c/c/c/d/ c<B | G<c B A | G2 G z | 
c/c/c/d/ c<B | G<c B A | G2 B z | 
c/c/G/G/ F/G/C/D/ | FEF<D | C2 C z | 

